X:197
T:Da Boannie Polka
S:Various sources
Z:Nigel Gatherer
M:2/4
L:1/16
K:D
AG|F2 A2 G2 B2|A2 f2 fafd|B2 e2 efec|A2 D2 D2:|
fe|d2 B2 BcdB|A2 F2 F3 A|G2 E2 EFGE| F2 D2 D2:|
<end>
<start>
